TileServer und Tiles/svg/9/42_24.svg

<?xml version='1.0' encoding='UTF-8' standalone='no'?>
<svg xmlns="http://www.w3.org/2000/svg" width="497pt" viewBox="0 0 497 279" xmlns:xlink="http://www.w3.org/1999/xlink" height="279pt">
 <defs style="stroke:none;" overflow="visible">
  <path id="glyph0-4" d="M 1.9375 0.09375 C 1.507812 0.09375 1.160156 -0.0546875 0.890625 -0.359375 C 0.617188 -0.671875 0.484375 -1.128906 0.484375 -1.734375 C 0.484375 -2.234375 0.546875 -2.707031 0.671875 -3.15625 C 0.804688 -3.601562 0.988281 -4 1.21875 -4.34375 C 1.445312 -4.6875 1.722656 -4.957031 2.046875 -5.15625 C 2.367188 -5.351562 2.722656 -5.453125 3.109375 -5.453125 C 3.460938 -5.453125 3.75 -5.359375 3.96875 -5.171875 C 4.1875 -4.992188 4.347656 -4.78125 4.453125 -4.53125 L 4.515625 -4.53125 L 4.828125 -5.359375 L 5.5 -5.359375 L 4.359375 0 L 3.65625 0 L 3.796875 -0.984375 L 3.75 -0.984375 C 3.519531 -0.691406 3.25 -0.4375 2.9375 -0.21875 C 2.632812 -0.0078125 2.300781 0.09375 1.9375 0.09375 Z M 2.21875 -0.625 C 2.46875 -0.625 2.707031 -0.710938 2.9375 -0.890625 C 3.175781 -1.078125 3.390625 -1.320312 3.578125 -1.625 C 3.773438 -1.9375 3.925781 -2.28125 4.03125 -2.65625 C 4.082031 -2.851562 4.113281 -3.03125 4.125 -3.1875 C 4.144531 -3.351562 4.15625 -3.507812 4.15625 -3.65625 C 4.15625 -3.96875 4.066406 -4.222656 3.890625 -4.421875 C 3.722656 -4.617188 3.492188 -4.71875 3.203125 -4.71875 C 2.941406 -4.71875 2.703125 -4.632812 2.484375 -4.46875 C 2.265625 -4.3125 2.070312 -4.085938 1.90625 -3.796875 C 1.738281 -3.515625 1.609375 -3.191406 1.515625 -2.828125 C 1.421875 -2.472656 1.375 -2.097656 1.375 -1.703125 C 1.375 -1.347656 1.445312 -1.078125 1.59375 -0.890625 C 1.738281 -0.710938 1.945312 -0.625 2.21875 -0.625 Z M 2.21875 -0.625 "/>
  <path id="glyph0-3" d="M 0.28125 0 L 1.421875 -5.359375 L 2.296875 -5.359375 L 1.828125 -3.125 L 4.34375 -3.125 L 4.828125 -5.359375 L 5.703125 -5.359375 L 4.578125 0 L 3.6875 0 L 4.1875 -2.40625 L 1.671875 -2.40625 L 1.15625 0 Z M 0.28125 0 "/>
  <path id="glyph0-2" d="M 2.421875 0.09375 C 1.796875 0.09375 1.316406 -0.0820312 0.984375 -0.4375 C 0.648438 -0.800781 0.484375 -1.296875 0.484375 -1.921875 C 0.484375 -2.347656 0.539062 -2.769531 0.65625 -3.1875 C 0.78125 -3.601562 0.957031 -3.984375 1.1875 -4.328125 C 1.425781 -4.671875 1.710938 -4.941406 2.046875 -5.140625 C 2.378906 -5.347656 2.75 -5.453125 3.15625 -5.453125 C 3.664062 -5.453125 4.046875 -5.34375 4.296875 -5.125 C 4.554688 -4.90625 4.6875 -4.597656 4.6875 -4.203125 C 4.6875 -3.859375 4.578125 -3.539062 4.359375 -3.25 C 4.148438 -2.96875 3.8125 -2.738281 3.34375 -2.5625 C 2.882812 -2.394531 2.289062 -2.3125 1.5625 -2.3125 L 1.390625 -2.3125 C 1.378906 -2.257812 1.375 -2.195312 1.375 -2.125 C 1.375 -2.0625 1.375 -2.003906 1.375 -1.953125 C 1.375 -1.546875 1.472656 -1.222656 1.671875 -0.984375 C 1.867188 -0.742188 2.171875 -0.625 2.578125 -0.625 C 2.828125 -0.625 3.066406 -0.660156 3.296875 -0.734375 C 3.523438 -0.804688 3.773438 -0.910156 4.046875 -1.046875 L 4.046875 -0.296875 C 3.785156 -0.179688 3.535156 -0.0859375 3.296875 -0.015625 C 3.054688 0.0546875 2.765625 0.09375 2.421875 0.09375 Z M 1.515625 -3.03125 L 1.59375 -3.03125 C 1.988281 -3.03125 2.351562 -3.0625 2.6875 -3.125 C 3.03125 -3.195312 3.304688 -3.316406 3.515625 -3.484375 C 3.722656 -3.648438 3.828125 -3.867188 3.828125 -4.140625 C 3.828125 -4.316406 3.769531 -4.457031 3.65625 -4.5625 C 3.539062 -4.675781 3.359375 -4.734375 3.109375 -4.734375 C 2.785156 -4.734375 2.472656 -4.582031 2.171875 -4.28125 C 1.878906 -3.988281 1.660156 -3.570312 1.515625 -3.03125 Z M 1.515625 -3.03125 "/>
  <path id="glyph0-1" d="M 0.296875 0.109375 C 0.160156 0.109375 0.0390625 0.0976562 -0.0625 0.078125 C -0.164062 0.0546875 -0.25 0.03125 -0.3125 0 L -0.3125 -0.78125 C -0.25 -0.75 -0.171875 -0.722656 -0.078125 -0.703125 C 0.00390625 -0.691406 0.09375 -0.6875 0.1875 -0.6875 C 0.382812 -0.6875 0.554688 -0.726562 0.703125 -0.8125 C 0.859375 -0.894531 1.003906 -1.039062 1.140625 -1.25 C 1.273438 -1.46875 1.410156 -1.78125 1.546875 -2.1875 C 1.648438 -2.488281 1.765625 -2.835938 1.890625 -3.234375 C 2.015625 -3.640625 2.140625 -4.066406 2.265625 -4.515625 C 2.390625 -4.960938 2.515625 -5.410156 2.640625 -5.859375 C 2.765625 -6.316406 2.878906 -6.742188 2.984375 -7.140625 L 6.546875 -7.140625 L 5.015625 0 L 4.125 0 L 5.46875 -6.34375 L 3.65625 -6.34375 C 3.5625 -6.007812 3.460938 -5.648438 3.359375 -5.265625 C 3.253906 -4.878906 3.144531 -4.484375 3.03125 -4.078125 C 2.914062 -3.671875 2.800781 -3.28125 2.6875 -2.90625 C 2.582031 -2.539062 2.476562 -2.21875 2.375 -1.9375 C 2.226562 -1.507812 2.066406 -1.140625 1.890625 -0.828125 C 1.722656 -0.523438 1.515625 -0.289062 1.265625 -0.125 C 1.015625 0.03125 0.691406 0.109375 0.296875 0.109375 Z M 0.296875 0.109375 "/>
  <path id="glyph0-0" d="M 0.9375 0 L 0.9375 -7.140625 L 5.046875 -7.140625 L 5.046875 0 Z M 1.453125 -0.515625 L 4.546875 -0.515625 L 4.546875 -6.625 L 1.453125 -6.625 Z M 1.453125 -0.515625 "/>
 </defs>
 <image width="497" xlink:href="svg/9/42_24.jpg" height="279"/>
 <g>
  <path d="M 178.921875 101.199219 C 178.785156 101.199219 178.664062 101.1875 178.5625 101.167969 C 178.460938 101.144531 178.375 101.121094 178.3125 101.089844 L 178.3125 100.308594 C 178.375 100.339844 178.453125 100.367188 178.546875 100.386719 C 178.628906 100.398438 178.71875 100.402344 178.8125 100.402344 C 179.007812 100.402344 179.179688 100.363281 179.328125 100.277344 C 179.484375 100.195312 179.628906 100.050781 179.765625 99.839844 C 179.898438 99.621094 180.035156 99.308594 180.171875 98.902344 C 180.273438 98.601562 180.390625 98.253906 180.515625 97.855469 C 180.640625 97.449219 180.765625 97.023438 180.890625 96.574219 C 181.015625 96.128906 181.140625 95.679688 181.265625 95.230469 C 181.390625 94.773438 181.503906 94.347656 181.609375 93.949219 L 185.171875 93.949219 L 183.640625 101.089844 L 182.75 101.089844 L 184.09375 94.746094 L 182.28125 94.746094 C 182.1875 95.082031 182.085938 95.441406 181.984375 95.824219 C 181.878906 96.210938 181.769531 96.605469 181.65625 97.011719 C 181.539062 97.417969 181.425781 97.808594 181.3125 98.183594 C 181.207031 98.550781 181.101562 98.871094 181 99.152344 C 180.851562 99.582031 180.691406 99.949219 180.515625 100.261719 C 180.347656 100.566406 180.140625 100.800781 179.890625 100.964844 C 179.640625 101.121094 179.316406 101.199219 178.921875 101.199219 Z M 178.921875 101.199219 " transform=" rotate(  340 190.616 98.0888) " style="fill:none;stroke-width:2;stroke-linecap:butt;stroke-linejoin:round;stroke:rgb(100%,100%,100%);stroke-opacity:0.6;stroke-miterlimit:10;"/>
  <path d="M 187.539062 101.183594 C 186.914062 101.183594 186.433594 101.007812 186.101562 100.652344 C 185.765625 100.289062 185.601562 99.792969 185.601562 99.167969 C 185.601562 98.742188 185.65625 98.320312 185.773438 97.902344 C 185.898438 97.488281 186.074219 97.105469 186.304688 96.761719 C 186.542969 96.417969 186.828125 96.148438 187.164062 95.949219 C 187.496094 95.742188 187.867188 95.636719 188.273438 95.636719 C 188.78125 95.636719 189.164062 95.746094 189.414062 95.964844 C 189.671875 96.183594 189.804688 96.492188 189.804688 96.886719 C 189.804688 97.230469 189.695312 97.550781 189.476562 97.839844 C 189.265625 98.121094 188.929688 98.351562 188.460938 98.527344 C 188 98.695312 187.40625 98.777344 186.679688 98.777344 L 186.507812 98.777344 C 186.496094 98.832031 186.492188 98.894531 186.492188 98.964844 C 186.492188 99.027344 186.492188 99.085938 186.492188 99.136719 C 186.492188 99.542969 186.589844 99.867188 186.789062 100.105469 C 186.984375 100.347656 187.289062 100.464844 187.695312 100.464844 C 187.945312 100.464844 188.183594 100.429688 188.414062 100.355469 C 188.640625 100.285156 188.890625 100.179688 189.164062 100.042969 L 189.164062 100.792969 C 188.902344 100.910156 188.652344 101.003906 188.414062 101.074219 C 188.171875 101.144531 187.882812 101.183594 187.539062 101.183594 Z M 186.632812 98.058594 L 186.710938 98.058594 C 187.105469 98.058594 187.46875 98.027344 187.804688 97.964844 C 188.148438 97.894531 188.421875 97.773438 188.632812 97.605469 C 188.839844 97.441406 188.945312 97.222656 188.945312 96.949219 C 188.945312 96.773438 188.886719 96.632812 188.773438 96.527344 C 188.65625 96.414062 188.476562 96.355469 188.226562 96.355469 C 187.902344 96.355469 187.589844 96.507812 187.289062 96.808594 C 186.996094 97.101562 186.777344 97.519531 186.632812 98.058594 Z M 186.632812 98.058594 " transform=" rotate(  340 190.616 98.0888) " style="fill:none;stroke-width:2;stroke-linecap:butt;stroke-linejoin:round;stroke:rgb(100%,100%,100%);stroke-opacity:0.6;stroke-miterlimit:10;"/>
  <path d="M 190.386719 101.089844 L 191.527344 95.730469 L 192.402344 95.730469 L 191.933594 97.964844 L 194.449219 97.964844 L 194.933594 95.730469 L 195.808594 95.730469 L 194.683594 101.089844 L 193.792969 101.089844 L 194.292969 98.683594 L 191.777344 98.683594 L 191.261719 101.089844 Z M 190.386719 101.089844 " transform=" rotate(  340 190.616 98.0888) " style="fill:none;stroke-width:2;stroke-linecap:butt;stroke-linejoin:round;stroke:rgb(100%,100%,100%);stroke-opacity:0.6;stroke-miterlimit:10;"/>
  <path d="M 198.054688 101.183594 C 197.625 101.183594 197.277344 101.035156 197.007812 100.730469 C 196.734375 100.417969 196.601562 99.960938 196.601562 99.355469 C 196.601562 98.855469 196.664062 98.382812 196.789062 97.933594 C 196.921875 97.488281 197.105469 97.089844 197.335938 96.746094 C 197.5625 96.402344 197.839844 96.132812 198.164062 95.933594 C 198.484375 95.738281 198.839844 95.636719 199.226562 95.636719 C 199.578125 95.636719 199.867188 95.730469 200.085938 95.917969 C 200.304688 96.097656 200.464844 96.308594 200.570312 96.558594 L 200.632812 96.558594 L 200.945312 95.730469 L 201.617188 95.730469 L 200.476562 101.089844 L 199.773438 101.089844 L 199.914062 100.105469 L 199.867188 100.105469 C 199.636719 100.398438 199.367188 100.652344 199.054688 100.871094 C 198.75 101.082031 198.417969 101.183594 198.054688 101.183594 Z M 198.335938 100.464844 C 198.585938 100.464844 198.824219 100.378906 199.054688 100.199219 C 199.292969 100.011719 199.507812 99.769531 199.695312 99.464844 C 199.890625 99.152344 200.042969 98.808594 200.148438 98.433594 C 200.199219 98.238281 200.230469 98.058594 200.242188 97.902344 C 200.261719 97.738281 200.273438 97.582031 200.273438 97.433594 C 200.273438 97.121094 200.183594 96.867188 200.007812 96.667969 C 199.839844 96.472656 199.609375 96.371094 199.320312 96.371094 C 199.058594 96.371094 198.820312 96.457031 198.601562 96.621094 C 198.382812 96.777344 198.1875 97.003906 198.023438 97.292969 C 197.855469 97.574219 197.726562 97.898438 197.632812 98.261719 C 197.539062 98.617188 197.492188 98.992188 197.492188 99.386719 C 197.492188 99.742188 197.5625 100.011719 197.710938 100.199219 C 197.855469 100.378906 198.0625 100.464844 198.335938 100.464844 Z M 198.335938 100.464844 " transform=" rotate(  340 190.616 98.0888) " style="fill:none;stroke-width:2;stroke-linecap:butt;stroke-linejoin:round;stroke:rgb(100%,100%,100%);stroke-opacity:0.6;stroke-miterlimit:10;"/>
  <g transform=" rotate(  340 190.616 98.0888) " style="fill:rgb(30.196078%,50.196078%,70.196078%);fill-opacity:1;">
   <use xlink:href="#glyph0-1" y="101.088827" x="178.626353"/>
   <use xlink:href="#glyph0-2" y="101.088827" x="185.116353"/>
   <use xlink:href="#glyph0-3" y="101.088827" x="190.106353"/>
   <use xlink:href="#glyph0-4" y="101.088827" x="196.116353"/>
  </g>
 </g>
</svg>

<svg xmlns="http://www.w3.org/2000/svg" xmlns:xlink="http://www.w3.org/1999/xlink" viewBox="0 0 497 279"> <defs overflow="visible" style="stroke:none">  <path id="d" d="M2 0c-.6 0-.9 0-1.2-.3C.6-.7.5-1 .5-1.7c0-.5 0-1 .2-1.5l.5-1.1c.2-.4.5-.7.8-.9a2 2 0 0 1 1.1-.3c.4 0 .6.1.9.3l.5.7.3-.9h.7L4.4 0h-.7l.1-1c-.3.3-.5.6-.9.8-.3.2-.6.2-.9.2Zm.1-.5c.4-.1.6-.2.9-.5l.6-.6a4 4 0 0 0 .4-1 3 3 0 0 0 .1-.7 4 4 0 0 0 0-.4c.1-.3.1-.5-.1-.7-.3-.2-.5-.3-.8-.3-.3 0-.5 0-.7.2a2 2 0 0 0-.6.7l-.4 1-.1 1.1c0 .4 0 .6.2.8.1.2.3.3.6.3Zm.1-.1"/>  <path id="c" d="m.3 0 1.1-5.4h.9L1.8-3h2.5l.5-2.4h.9L4.6 0h-1l.7-2.4H1.7L1.2 0Zm0 0"/>  <path id="b" d="M2.4 0c-.6 0-1 0-1.4-.3C.6-.8.5-1.3.5-2c0-.3 0-.8.2-1.2 0-.4.3-.8.5-1.1.2-.4.5-.7.8-.8a2 2 0 0 1 1.2-.4c.5 0 .8.2 1.1.5.3 0 .4.4.4.8 0 .3-.1.7-.3 1-.4.2-.6.4-1 .6-.6.2-1.2.3-1.9.3h-.1v.3c0 .5 0 .8.3 1 .2.3.5.4.9.4l.7-.1A5 5 0 0 0 4-1v.7a6 6 0 0 1-.7.3h-.9Zm-.9-3 1.3-.1.7-.4c.2-.1.3-.4.3-.5l-.1-.6-.7-.1c-.2 0-.5.1-.9.4L1.6-3Zm0 0"/>  <path id="a" d="M.3.1a2 2 0 0 1-.4 0L-.3 0v-.8l.2.1h.3l.5-.1c.2 0 .3-.2.4-.4l.4-1.1A49.1 49.1 0 0 0 3-7.2h3.5L5 0h-.9l1.4-6.3H3.7l-.3 1a217.3 217.3 0 0 1-1 3.4l-.5.9-.6 1h-1Zm0 0"/>  <path d="M1 0v-7.1h4V0Zm.4-.5h3.1v-6.1h-3Zm.1 0"/> </defs> <image xlink:href="svg/9/42_24.jpg" width="497" height="279"/> <path d="M179 101.2a2 2 0 0 1-.5 0l-.2-.2v-.7h.2l.3.2.5-.2.5-.5.4-.8a49.1 49.1 0 0 0 1.4-5.1h3.6l-1.6 7.2h-.8l1.2-6.4h-1.7l-.3 1.1a217.3 217.3 0 0 1-1 3.4l-.5 1-.5.8-1.1.2Zm8.5 0c-.5 0-1-.2-1.4-.5-.3-.4-.5-1-.5-1.5s0-.9.2-1.3l.5-1.1c.2-.4.5-.8.9-.9a2 2 0 0 1 1-.3c.7 0 1.1.1 1.3.4.2.2.3.5.3.9 0 .3-.1.7-.3 1-.2.1-.6.4-1 .5-.5.3-1 .4-1.8.4h-.2v.2c0 .5 0 1 .3 1.1.2.2.5.4.9.4l.7-.1a5 5 0 0 0 .8-.4v.8a6 6 0 0 1-.8.2h-.9Zm-.9-3.2H187.8l.8-.4c.2-.2.4-.4.4-.6l-.2-.5-.6-.1c-.2 0-.6.1-1 .4l-.5 1.3Zm3.8 3 1.1-5.2h.9l-.5 2.2h2.5l.6-2.3h1l-1.4 5.4h-.9l.7-2.4h-2.6l-.5 2.3Zm7.6.2c-.3 0-.6-.2-1-.5-.3-.3-.4-.7-.4-1.3 0-.5 0-1 .2-1.5l.5-1.2c.3-.3.5-.6.9-.7a2 2 0 0 1 1-.4c.4 0 .8.1.9.4l.5.6.4-.9h.6l-1.1 5.4h-.7l.1-1.1-.9 1c-.2 0-.6.2-1 .2Zm.4-.7c.2 0 .4-.1.7-.3l.6-.7a4 4 0 0 0 .4-1 3 3 0 0 0 .1-.7 4 4 0 0 0 0-.4c.1-.3.1-.4-.2-.7-.2-.2-.4-.3-.7-.3-.2 0-.5 0-.7.2a2 2 0 0 0-.6.7l-.4 1-.1 1c0 .5 0 .7.2 1l.6.2Zm-.1 0" style="fill:none;stroke-width:2;stroke-linecap:butt;stroke-linejoin:round;stroke:#fff;stroke-opacity:.6;stroke-miterlimit:10" transform=" rotate(  340 190.616 98.0888) "/> <g style="fill:#4d80b3;fill-opacity:1" transform=" rotate(  340 190.616 98.0888) ">  <use xlink:href="#a" x="178.6" y="101.1"/>  <use xlink:href="#b" x="185.1" y="101.1"/>  <use xlink:href="#c" x="190.1" y="101.1"/>  <use xlink:href="#d" x="196.1" y="101.1"/> </g></svg>
